X: 1632
T: Sabahtan Kalktım ki
C: (Anonim)
O: Turkey
F: http://compmusic.upf.edu/node/140
N: ussak--turku--nimsofyan--sabahtan_kalktim--
N: makam= ussak
N: form= turku
N: usul= nimsofyan = 2/4
M: 2/4
L: 1/16
K: C _2/4B   
Q: 1/4=84
%%MIDI tuningsystem comma53
A3/2B/cB c3/2B/ce  | d3/2e/cd BcA2  | \
w:  ARANAĞME  |   | 
AcBA A3/2G/^3/4FG  | 
w:   | 
A6z2  | A3/2B/cB c3/2B/ce  | d3/2e/cd BcA2  | \
w:   |  ARANAĞME  |   | 
AcBA A3/2G/^3/4FG  | 
w:   | 
A6z2  | z6Ac  | c2c2 c2c2  | c2cB c2e2  | d3/2e/cd BcA2  | 
w:   |  Sa bah  |  tan  kalk tım  ki   |  e zan  *  se si   |  var    | 
Bc2B cBce  | decd BcA2  | AB3/4c1/4BA G2^3/4FG  | 
w:  E zan  da  se *  si   |  de *  ğil  *  yâr  *  yâr   |  bur *  *  çak  *  ya sı   | 
A6z2  | Bc2B cBce  | decd BcA2  | AB3/4c1/4BA G2^3/4FG  | 
w:  var    |  E zan  da  se *  si   |  de *  ğil  *  yâr  *  yâr   |  bur *  *  çak  *  ya sı   | 
A6z2  | z6Ac  | c2c2 c2c2  | c2cB c2e2  | d3/2e/cd BcA2  | 
w:  var    |  Ba kın   |  şu  a da mın   |  kaç  tar *  la sı   |  var    | 
{A}cccc cBce  | decd BcA2  | AcBA G2^3/4FG  | 
w:  *  A man  *  da  kız *  lar   |  ne  *  zor_ *  i *  miş   |  bur *  çak  *  yol ma  | 
A6z2  | A3/2B/cB cBce  | decd B3/2c/A2  | \
w:  sı    |  Bur *  çak  *  tar *  la  |  sın *  da  *  yâr  *  yâr   | 
AB/c/BA G2^3/4FG  | 
w:  ge lin  *  *  *  ol ma  | 
A6z2  | A3/2B/cB cBce  | decd B3/2c/A2  | \
w:  sı    |  Eğ *  dir *  me  *  fe  |  si *  ni  *  yâr  *  yâr   | 
AB/c/BA G2^3/4FG  | 
w:  ka kar  *  *  da  gi de  | 
A6z2  | A3/2B/cB cBce  | decd B3/2c/A2  | \
w:  rim    |  E *  vi *  ni  *  ba  |  şı *  na  *  yâr  *  yâr   | 
AB/c/BA G2^3/4FG  | 
w:  yı kar  *  *  da  gi de  | 
A6z2  | A3/2B/cB c3/2B/ce  | d3/2e/cd BcA2  | \
w:  rim    |  ARANAĞME  |   | 
AcBA A3/2G/^3/4FG  | 
w:   | 
A6z2  | A3/2B/cB c3/2B/ce  | d3/2e/cd BcA2  | \
w:   |  ARANAĞME  |   | 
AcBA A3/2G/^3/4FG  | 
w:   | 
A6z2  | z6Ac  | c2c2 c2c2  | c2cB c2e2  | d3/2e/cd BcA2  | 
w:   |  Sa bah  |  tan  kalk tım  ki   |  e zan  *  se si   |  var    | 
Bc2B cBce  | decd BcA2  | AB3/4c1/4BA G2^3/4FG  | 
w:  E zan  da  se *  si   |  de *  ğil  *  yâr  *  yâr   |  bur *  *  çak  *  ya sı   | 
A6z2  | Bc2B cBce  | decd BcA2  | AB3/4c1/4BA G2^3/4FG  | 
w:  var    |  E zan  da  se *  si   |  de *  ğil  *  yâr  *  yâr   |  bur *  *  çak  *  ya sı   | 
A6z2  | z6Ac  | c2c2 c2c2  | c2cB c2e2  | d3/2e/cd BcA2  | 
w:  var    |  Ba kın   |  şu  a da mın   |  kaç  tar *  la sı   |  var    | 
{A}cccc cBce  | decd BcA2  | AcBA G2^3/4FG  | 
w:  *  A man  *  da  kız *  lar   |  ne  *  zor_ *  i *  miş   |  bur *  çak  *  yol ma  | 
A6z2  | A3/2B/cB cBce  | decd B3/2c/A2  | \
w:  sı    |  Bur *  çak  *  tar *  la  |  sın *  da  *  yâr  *  yâr   | 
AB/c/BA G2^3/4FG  | 
w:  ge lin  *  *  *  ol ma  | 
A6z2  | A3/2B/cB cBce  | decd B3/2c/A2  | \
w:  sı    |  Eğ *  dir *  me  *  fe  |  si *  ni  *  yâr  *  yâr   | 
AB/c/BA G2^3/4FG  | 
w:  ka kar  *  *  da  gi de  | 
A6z2  | A3/2B/cB cBce  | decd B3/2c/A2  | \
w:  rim    |  E *  vi *  ni  *  ba  |  şı *  na  *  yâr  *  yâr   | 
AB/c/BA G2^3/4FG  | 
w:  yı kar  *  *  da  gi de  | 
A6z2  | |


